netbox/static/netbox/icons/sa.svg

<?xml version="1.0" encoding="utf-8"?>
<!-- Generator: Adobe Illustrator 22.0.1, SVG Export Plug-In . SVG Version: 6.00 Build 0)  -->
<svg version="1.1" id="Layer_1" xmlns="http://www.w3.org/2000/svg" xmlns:xlink="http://www.w3.org/1999/xlink" x="0px" y="0px"
	 viewBox="0 0 56 56" style="enable-background:new 0 0 56 56;" xml:space="preserve">
<path d="M15.8,24.3c0.5-3.4,1.9-6,4.1-7.8c2.2-1.8,4.9-2.8,8-2.8c4.3,0,7.8,1.4,10.3,4.2S42,24.2,42,28.6c0,4.2-1.3,7.7-4,10.5
	c-2.6,2.8-6.1,4.2-10.3,4.2c-3.1,0-5.8-0.9-8-2.8c-2.3-1.9-3.6-4.5-4.1-7.9h6.9c0.2,3.3,2.2,5,6,5c1.9,0,3.5-0.8,4.7-2.5
	c1.2-1.7,1.8-3.9,1.8-6.7c0-2.9-0.5-5.1-1.6-6.6c-1.1-1.5-2.6-2.3-4.7-2.3c-3.7,0-5.7,1.6-6.2,4.9h2l-5.4,5.4l-5.4-5.4H15.8
	 M28.1,5.7c-6.2,0-11.5,2.2-15.8,6.6c-4.5,4.5-6.7,9.8-6.7,15.9c0,6.1,2.2,11.4,6.7,15.8c4.4,4.4,9.7,6.7,15.9,6.7
	c6.1,0,11.4-2.2,16-6.7c4.3-4.2,6.5-9.4,6.5-15.7c0-6.3-2.2-11.6-6.6-15.9C39.6,7.9,34.3,5.7,28.1,5.7z M28,0.7
	c7.7,0,14.2,2.7,19.5,8c5.3,5.3,8,11.8,8,19.5c0,7.7-2.6,14.1-7.9,19.3c-5.5,5.4-12.1,8.1-19.7,8.1c-7.4,0-13.9-2.7-19.3-8.1
	c-5.4-5.4-8.1-11.9-8.1-19.4c0-7.5,2.7-14,8.1-19.5C14,3.4,20.4,0.7,28,0.7z"/>
</svg>

<?xml version="1.0" encoding="UTF-8"?>
<svg width="56px" height="56px" viewBox="0 0 56 56" version="1.1" xmlns="http://www.w3.org/2000/svg" xmlns:xlink="http://www.w3.org/1999/xlink">
    <!-- Generator: Sketch 59 (86127) - https://sketch.com -->
    <title>Shape</title>
    <desc>Created with Sketch.</desc>
    <g id="Page-1" stroke="none" stroke-width="1" fill="none" fill-rule="evenodd">
        <g id="chevron" transform="translate(-267.000000, 0.000000)" fill="#000000" fill-rule="nonzero">
            <g id="sa" transform="translate(267.000000, 0.000000)">
                <path d="M15.8,24.3 C16.3,20.9 17.7,18.3 19.9,16.5 C22.1,14.7 24.8,13.7 27.9,13.7 C32.2,13.7 35.7,15.1 38.2,17.9 C40.7,20.7 42,24.2 42,28.6 C42,32.8 40.7,36.3 38,39.1 C35.4,41.9 31.9,43.3 27.7,43.3 C24.6,43.3 21.9,42.4 19.7,40.5 C17.4,38.6 16.1,36 15.6,32.6 L22.5,32.6 C22.7,35.9 24.7,37.6 28.5,37.6 C30.4,37.6 32,36.8 33.2,35.1 C34.4,33.4 35,31.2 35,28.4 C35,25.5 34.5,23.3 33.4,21.8 C32.3,20.3 30.8,19.5 28.7,19.5 C25,19.5 23,21.1 22.5,24.4 L24.5,24.4 L19.1,29.8 L13.7,24.4 L15.8,24.4 M28.1,5.7 C21.9,5.7 16.6,7.9 12.3,12.3 C7.8,16.8 5.6,22.1 5.6,28.2 C5.6,34.3 7.8,39.6 12.3,44 C16.7,48.4 22,50.7 28.2,50.7 C34.3,50.7 39.6,48.5 44.2,44 C48.5,39.8 50.7,34.6 50.7,28.3 C50.7,22 48.5,16.7 44.1,12.4 C39.6,7.9 34.3,5.7 28.1,5.7 Z M28,0.7 C35.7,0.7 42.2,3.4 47.5,8.7 C52.8,14 55.5,20.5 55.5,28.2 C55.5,35.9 52.9,42.3 47.6,47.5 C42.1,52.9 35.5,55.6 27.9,55.6 C20.5,55.6 14,52.9 8.6,47.5 C3.2,42.1 0.5,35.6 0.5,28.1 C0.5,20.6 3.2,14.1 8.6,8.6 C14,3.4 20.4,0.7 28,0.7 Z" id="Shape"></path>
            </g>
        </g>
    </g>
</svg>
